germany/municipalities/07231083.svg

<?xml version="1.0" encoding="UTF-8" standalone="no"?>
<!-- Created with Inkscape (http://www.inkscape.org/) -->

<svg
   xmlns:dc="http://purl.org/dc/elements/1.1/"
   xmlns:cc="http://creativecommons.org/ns#"
   xmlns:rdf="http://www.w3.org/1999/02/22-rdf-syntax-ns#"
   xmlns:svg="http://www.w3.org/2000/svg"
   xmlns="http://www.w3.org/2000/svg"
   xmlns:sodipodi="http://sodipodi.sourceforge.net/DTD/sodipodi-0.dtd"
   xmlns:inkscape="http://www.inkscape.org/namespaces/inkscape"
   width="174.99127mm"
   height="209.3436mm"
   viewBox="0 0 174.99127 209.3436"
   version="1.1"
   id="svg3060"
   inkscape:version="0.92.4 (5da689c313, 2019-01-14)"
   sodipodi:docname="DEU Merschbach COA.svg">
  <defs
     id="defs3054" />
  <sodipodi:namedview
     id="base"
     pagecolor="#ffffff"
     bordercolor="#666666"
     borderopacity="1.0"
     inkscape:pageopacity="0.0"
     inkscape:pageshadow="2"
     inkscape:zoom="0.69260142"
     inkscape:cx="330.69218"
     inkscape:cy="395.60996"
     inkscape:document-units="mm"
     inkscape:current-layer="layer1"
     showgrid="false"
     inkscape:window-width="1366"
     inkscape:window-height="745"
     inkscape:window-x="-8"
     inkscape:window-y="-8"
     inkscape:window-maximized="1"
     fit-margin-top="0"
     fit-margin-left="0"
     fit-margin-right="0"
     fit-margin-bottom="0"
     inkscape:snap-midpoints="true"
     inkscape:snap-smooth-nodes="true"
     inkscape:snap-nodes="true"
     inkscape:object-paths="true" />
  <metadata
     id="metadata3057">
    <rdf:RDF>
      <cc:Work
         rdf:about="">
        <dc:format>image/svg+xml</dc:format>
        <dc:type
           rdf:resource="http://purl.org/dc/dcmitype/StillImage" />
        <dc:title></dc:title>
      </cc:Work>
    </rdf:RDF>
  </metadata>
  <g
     inkscape:label="Ebene 1"
     inkscape:groupmode="layer"
     id="layer1"
     transform="translate(-3.6313242,-13.603413)">
    <path
       style="fill:#ffd700;fill-opacity:1;fill-rule:evenodd;stroke:none;stroke-width:3.10444427;stroke-opacity:1"
       inkscape:connector-curvature="0"
       d="M 177.05883,15.155637 176.18716,132.73631 C 174.28505,182.1957 136.70324,221.3671 91.126906,221.39478 45.591675,221.33408 7.9958061,182.14863 6.0667571,132.73631 L 5.1950971,15.155637 H 91.124856 Z"
       id="path10563-0-6-7-9-2"
       sodipodi:nodetypes="ccccccc" />
    <path
       style="fill:#ff0000;fill-opacity:1;stroke:#000000;stroke-width:0.79375005;stroke-linecap:round;stroke-linejoin:round;stroke-miterlimit:4;stroke-dasharray:none;stroke-opacity:1"
       d="M 78.720328,24.564806 V 47.766489 H 90.321172 V 24.564806 Z"
       id="path4149-19"
       inkscape:connector-curvature="0" />
    <path
       style="fill:#ff0000;fill-opacity:1;stroke:#000000;stroke-width:3.00000024;stroke-linecap:round;stroke-linejoin:round;stroke-miterlimit:4;stroke-dasharray:none;stroke-opacity:1"
       d="M 153.13672 652.50195 L 153.13672 726.92188 C 159.60719 731.59689 166.23759 736.02558 173.02148 740.19336 L 240.82812 740.19336 L 240.82812 652.50195 L 153.13672 652.50195 z M 283.80078 652.50195 L 283.80078 740.19336 L 327.64648 740.19336 L 327.64648 652.50195 L 283.80078 652.50195 z "
       transform="matrix(0.26458333,0,0,0.26458333,3.6313242,13.603413)"
       id="path4149-1-0" />
    <path
       style="fill:#ff0000;fill-opacity:1;stroke:#000000;stroke-width:3.00000024;stroke-linecap:round;stroke-linejoin:round;stroke-miterlimit:4;stroke-dasharray:none;stroke-opacity:1"
       d="M 7.0488281 159.54297 L 8.2382812 319.81836 L 399.63281 319.81836 L 399.63281 159.54297 L 7.0488281 159.54297 z M 10.15625 465.95312 C 14.879101 524.80985 33.017071 579.41424 61.175781 626.23047 L 428.85938 626.23047 L 428.85938 465.95312 L 10.15625 465.95312 z "
       transform="matrix(0.26458333,0,0,0.26458333,3.6313242,13.603413)"
       id="path4147" />
    <g
       id="g4024">
      <path
         id="rect3890"
         transform="matrix(0.26458333,0,0,0.26458333,3.6313242,13.603413)"
         d="M 330.68359 5.8671875 L 330.68359 785.35352 C 330.6862 785.35352 330.6888 785.35351 330.69141 785.35352 C 502.94841 785.2489 644.99061 637.19875 652.17969 450.26562 L 655.47461 5.8671875 L 330.68359 5.8671875 z "
         style="fill:#0033ff;fill-opacity:1;stroke:#000000;stroke-width:11;stroke-linecap:round;stroke-linejoin:round;stroke-miterlimit:4;stroke-dasharray:none;stroke-opacity:1" />
      <path
         sodipodi:nodetypes="ccccccc"
         id="path10563-0-6-7-9"
         d="M 177.05883,15.155635 176.18716,132.73631 C 174.28505,182.1957 136.70324,221.3671 91.126905,221.39478 45.591675,221.33408 7.9958044,182.14863 6.0667555,132.73631 L 5.1950961,15.155635 H 91.124855 Z"
         inkscape:connector-curvature="0"
         style="fill:none;fill-rule:evenodd;stroke:#000000;stroke-width:3.10444427;stroke-opacity:1" />
    </g>
    <path
       style="fill:#ff0000;fill-opacity:1;stroke:#000000;stroke-width:0.79375005;stroke-linecap:round;stroke-linejoin:round;stroke-miterlimit:4;stroke-dasharray:none;stroke-opacity:1"
       d="M 9.5776026,24.564806 V 47.76649 H 32.779285 V 24.564806 Z"
       id="path4149"
       inkscape:connector-curvature="0" />
    <rect
       style="fill:#ffffff;fill-opacity:1;stroke:#000000;stroke-width:1.32291663;stroke-linecap:round;stroke-linejoin:round;stroke-miterlimit:4;stroke-dasharray:none;stroke-opacity:1"
       id="rect4072-9"
       width="9.1800489"
       height="132.66652"
       x="128.08185"
       y="41.71508" />
    <ellipse
       style="fill:#ffffff;fill-opacity:1;stroke:#000000;stroke-width:1.32291663;stroke-linecap:round;stroke-linejoin:round;stroke-miterlimit:4;stroke-dasharray:none;stroke-opacity:1"
       id="path4074-7"
       cx="132.67186"
       cy="108.04834"
       rx="21.173336"
       ry="51.970921" />
    <path
       style="fill:#ffffff;fill-opacity:1;stroke:#000000;stroke-width:1.32291663;stroke-linecap:round;stroke-linejoin:round;stroke-miterlimit:4;stroke-dasharray:none;stroke-opacity:1"
       d="m 123.78817,54.522668 v 4.442106 h 17.76739 v -4.442106 z m 0,102.609242 v 4.4421 h 17.76739 v -4.4421 z"
       id="rect4076-8"
       inkscape:connector-curvature="0" />
    <path
       style="fill:#ff0000;fill-opacity:1;stroke:#000000;stroke-width:0.79375005;stroke-linecap:round;stroke-linejoin:round;stroke-miterlimit:4;stroke-dasharray:none;stroke-opacity:1"
       d="M 44.148968,24.564805 V 47.766489 H 67.350651 V 24.564805 Z"
       id="path4149-1"
       inkscape:connector-curvature="0" />
    <path
       style="fill:#ff0000;fill-opacity:1;stroke:#000000;stroke-width:0.79375005;stroke-linecap:round;stroke-linejoin:round;stroke-miterlimit:4;stroke-dasharray:none;stroke-opacity:1"
       d="m 21.828398,105.95385 v 23.20168 h 23.201685 v -23.20168 z m 34.571533,0 v 23.20168 h 23.201684 v -23.20168 z"
       id="path4149-8"
       inkscape:connector-curvature="0" />
    <path
       style="fill:none;fill-rule:evenodd;stroke:#000000;stroke-width:3.10444427;stroke-opacity:1"
       inkscape:connector-curvature="0"
       d="M 177.05878,15.155635 176.18711,132.73631 C 174.285,182.1957 136.70319,221.3671 91.126953,221.39478 45.59172,221.33408 7.9958601,182.14863 6.0668101,132.73631 L 5.1951501,15.155635 H 91.124903 Z"
       id="path10563-0-6-7-3"
       sodipodi:nodetypes="ccccccc" />
    <path
       style="fill:none;stroke:#000000;stroke-width:0.26458332px;stroke-linecap:butt;stroke-linejoin:miter;stroke-opacity:1"
       d="m 116.72553,73.858364 35.57415,14.698381"
       id="path4267"
       inkscape:connector-curvature="0" />
    <path
       style="fill:none;stroke:#000000;stroke-width:0.26458332px;stroke-linecap:butt;stroke-linejoin:miter;stroke-opacity:1"
       d="m 134.80837,85.6102 18.11983,7.442121"
       id="path4267-9"
       inkscape:connector-curvature="0" />
    <path
       style="fill:none;stroke:#000000;stroke-width:0.26458332px;stroke-linecap:butt;stroke-linejoin:miter;stroke-opacity:1"
       d="m 127.83176,143.18016 17.20118,7.06022"
       id="path4267-9-6"
       inkscape:connector-curvature="0" />
    <path
       style="fill:none;stroke:#000000;stroke-width:0.26458332px;stroke-linecap:butt;stroke-linejoin:miter;stroke-opacity:1"
       d="m 111.74435,100.20985 30.52159,12.59788"
       id="path4267-9-64"
       inkscape:connector-curvature="0" />
    <path
       style="fill:none;stroke:#000000;stroke-width:0.26458332px;stroke-linecap:butt;stroke-linejoin:miter;stroke-opacity:1"
       d="m 119.58601,67.193761 27.30632,11.261206"
       id="path4267-9-4"
       inkscape:connector-curvature="0" />
    <path
       style="fill:none;stroke:#000000;stroke-width:0.26458332px;stroke-linecap:butt;stroke-linejoin:miter;stroke-opacity:1"
       d="m 124.04563,60.580038 19.03848,7.824031"
       id="path4267-9-5"
       inkscape:connector-curvature="0" />
    <path
       style="fill:none;stroke:#000000;stroke-width:0.26458332px;stroke-linecap:butt;stroke-linejoin:miter;stroke-opacity:1"
       d="m 115.36,119.64909 35.57415,14.69837"
       id="path4267-9-0"
       inkscape:connector-curvature="0" />
    <path
       style="fill:none;stroke:#000000;stroke-width:0.26458332px;stroke-linecap:butt;stroke-linejoin:miter;stroke-opacity:1"
       d="m 111.50253,108.0421 30.52159,12.59788"
       id="path4267-9-1"
       inkscape:connector-curvature="0" />
    <path
       style="fill:none;stroke:#000000;stroke-width:0.26458332px;stroke-linecap:butt;stroke-linejoin:miter;stroke-opacity:1"
       d="m 112.61155,91.524058 12.60795,5.150676"
       id="path4267-9-7"
       inkscape:connector-curvature="0" />
    <path
       style="fill:none;stroke:#000000;stroke-width:0.26458332px;stroke-linecap:butt;stroke-linejoin:miter;stroke-opacity:1"
       d="m 136.03502,94.947958 17.66051,7.251172"
       id="path4267-9-14"
       inkscape:connector-curvature="0" />
    <path
       style="fill:none;stroke:#000000;stroke-width:0.26458332px;stroke-linecap:butt;stroke-linejoin:miter;stroke-opacity:1"
       d="m 117.50772,107.17898 35.57415,14.69838"
       id="path4267-9-3"
       inkscape:connector-curvature="0" />
    <path
       style="fill:none;stroke:#000000;stroke-width:0.26458332px;stroke-linecap:butt;stroke-linejoin:miter;stroke-opacity:1"
       d="m 125.81262,152.408 13.06726,5.34163"
       id="path4267-9-10"
       inkscape:connector-curvature="0" />
  </g>
</svg>

<svg xmlns="http://www.w3.org/2000/svg" width="661.384" height="791.22" viewBox="0 0 174.991 209.344"><g transform="translate(-3.631 -13.603)"><path style="fill:gold;fill-opacity:1;fill-rule:evenodd;stroke:none;stroke-width:3.10444427;stroke-opacity:1" d="m177.059 15.156-.872 117.58c-1.902 49.46-39.484 88.631-85.06 88.659-45.535-.06-83.131-39.246-85.06-88.659l-.872-117.58h85.93z"/><path style="fill:red;fill-opacity:1;stroke:#000;stroke-width:.79375005;stroke-linecap:round;stroke-linejoin:round;stroke-miterlimit:4;stroke-dasharray:none;stroke-opacity:1" d="M78.72 24.565v23.201h11.601V24.565z"/><path style="fill:red;fill-opacity:1;stroke:#000;stroke-width:3.00000024;stroke-linecap:round;stroke-linejoin:round;stroke-miterlimit:4;stroke-dasharray:none;stroke-opacity:1" d="M153.137 652.502v74.42c6.47 4.675 13.1 9.104 19.884 13.271h67.807v-87.691h-87.691zm130.664 0v87.691h43.845v-87.691h-43.845zM7.049 159.543l1.19 160.275h391.394V159.543H7.049zm3.107 306.41c4.723 58.857 22.861 113.461 51.02 160.277h367.683V465.953H10.156z" transform="matrix(.26458 0 0 .26458 3.631 13.603)"/><path transform="matrix(.26458 0 0 .26458 3.631 13.603)" d="M330.684 5.867v779.487h.007c172.257-.105 314.3-148.155 321.489-335.088l3.295-444.399H330.684z" style="fill:#03f;fill-opacity:1;stroke:#000;stroke-width:11;stroke-linecap:round;stroke-linejoin:round;stroke-miterlimit:4;stroke-dasharray:none;stroke-opacity:1"/><path d="m177.059 15.156-.872 117.58c-1.902 49.46-39.484 88.631-85.06 88.659-45.535-.06-83.131-39.246-85.06-88.659l-.872-117.58h85.93z" style="fill:none;fill-rule:evenodd;stroke:#000;stroke-width:3.10444427;stroke-opacity:1"/><path style="fill:red;fill-opacity:1;stroke:#000;stroke-width:.79375005;stroke-linecap:round;stroke-linejoin:round;stroke-miterlimit:4;stroke-dasharray:none;stroke-opacity:1" d="M9.578 24.565v23.201h23.201V24.565z"/><path style="fill:#fff;fill-opacity:1;stroke:#000;stroke-width:1.32291663;stroke-linecap:round;stroke-linejoin:round;stroke-miterlimit:4;stroke-dasharray:none;stroke-opacity:1" d="M128.082 41.715h9.18v132.667h-9.18z"/><ellipse style="fill:#fff;fill-opacity:1;stroke:#000;stroke-width:1.32291663;stroke-linecap:round;stroke-linejoin:round;stroke-miterlimit:4;stroke-dasharray:none;stroke-opacity:1" cx="132.672" cy="108.048" rx="21.173" ry="51.971"/><path style="fill:#fff;fill-opacity:1;stroke:#000;stroke-width:1.32291663;stroke-linecap:round;stroke-linejoin:round;stroke-miterlimit:4;stroke-dasharray:none;stroke-opacity:1" d="M123.788 54.523v4.442h17.768v-4.442zm0 102.609v4.442h17.768v-4.442z"/><path style="fill:red;fill-opacity:1;stroke:#000;stroke-width:.79375005;stroke-linecap:round;stroke-linejoin:round;stroke-miterlimit:4;stroke-dasharray:none;stroke-opacity:1" d="M44.149 24.565v23.201h23.202V24.565zM21.828 105.954v23.202H45.03v-23.202zm34.572 0v23.202h23.202v-23.202z"/><path style="fill:none;fill-rule:evenodd;stroke:#000;stroke-width:3.10444427;stroke-opacity:1" d="m177.059 15.156-.872 117.58c-1.902 49.46-39.484 88.631-85.06 88.659-45.535-.06-83.131-39.246-85.06-88.659l-.872-117.58h85.93z"/><path style="fill:none;stroke:#000;stroke-width:.26458332px;stroke-linecap:butt;stroke-linejoin:miter;stroke-opacity:1" d="M116.726 73.858 152.3 88.557M134.808 85.61l18.12 7.442M127.832 143.18l17.2 7.06M111.744 100.21l30.522 12.598M119.586 67.194l27.306 11.261M124.046 60.58l19.038 7.824M115.36 119.65l35.574 14.697M111.503 108.042l30.521 12.598M112.612 91.524l12.607 5.15M136.035 94.948l17.66 7.251M117.508 107.179l35.574 14.698M125.813 152.408l13.067 5.342"/></g></svg>
